;FLAVOR:Marlin
;TIME:24552
;Filament used: 43.1723m
;Layer height: 0.4
;MINX:70.8
;MINY:76.8
;MINZ:0.3
;MAXX:229.2
;MAXY:223.2
;MAXZ:15.9
;TARGET_MACHINE.NAME:Anet A8 Plus
;Generated with Cura_SteamEngine 5.9.0
M140 S60
M105
M190 S60
M104 S200
M105
M109 S200
M82 ;absolute extrusion mode
G28 ;Home
G1 Z15.0 F2000 ;Move the platform
G92 E0
G92 E0
G1 F1500 E-6.5
;LAYER_COUNT:40
;LAYER:0
M107
M204 S1000
G0 F7500 X71.356 Y124.763 Z0.3
;TYPE:SKIRT
G1 F1500 E0
G1 X71.577 Y122.06 E0.1353
G1 X71.724 Y119.335 E0.27145
G1 X71.8 Y115.504 E0.46262
G1 X71.8 Y80.626 E2.20269
G1 X71.81 Y79.961 E2.23587
G1 X71.858 Y79.458 E2.26108
G1 X71.984 Y78.968 E2.28632
G1 X72.186 Y78.504 E2.31157
G1 X72.458 Y78.078 E2.33678
G1 X72.794 Y77.701 E2.36198
G1 X73.185 Y77.38 E2.38722
G1 X73.622 Y77.126 E2.41243
G1 X74.093 Y76.943 E2.43764
G1 X74.588 Y76.837 E2.4629
G1 X74.92 Y76.81 E2.47952
G1 X75.24 Y76.801 E2.49549
G1 X224.339 Y76.8 E9.93407
G1 X225.037 Y76.81 E9.9689
G1 X225.54 Y76.857 E9.9941
G1 X226.03 Y76.983 E10.01934
G1 X226.494 Y77.185 E10.04459
G1 X226.92 Y77.457 E10.0698
G1 X227.298 Y77.792 E10.095
G1 X227.618 Y78.183 E10.12021
G1 X227.873 Y78.62 E10.14545
G1 X228.056 Y79.091 E10.17066
G1 X228.163 Y79.585 E10.19588
G1 X228.19 Y79.92 E10.21265
G1 X228.199 Y80.24 E10.22862
G1 X228.2 Y115.525 E11.98899
G1 X228.24 Y118.322 E12.12855
G1 X228.355 Y121.039 E12.26422
G1 X228.55 Y123.785 E12.40157
G1 X228.819 Y126.501 E12.53773
G1 X229.164 Y129.212 E12.67408
G1 X229.188 Y129.509 E12.68894
G1 X229.198 Y129.855 E12.70621
G1 X229.2 Y169.73 E14.69558
G1 X229.189 Y170.448 E14.73141
G1 X229.163 Y170.806 E14.74932
G1 X228.953 Y172.444 E14.8317
G1 X228.644 Y175.237 E14.9719
G1 X228.423 Y177.94 E15.1072
G1 X228.276 Y180.665 E15.24335
G1 X228.2 Y184.496 E15.43452
G1 X228.2 Y219.308 E17.17129
G1 X228.19 Y220.035 E17.20757
G1 X228.143 Y220.538 E17.23277
G1 X228.017 Y221.028 E17.25801
G1 X227.816 Y221.492 E17.28324
G1 X227.544 Y221.918 E17.30846
G1 X227.209 Y222.297 E17.33369
G1 X226.818 Y222.617 E17.3589
G1 X226.382 Y222.872 E17.3841
G1 X225.911 Y223.056 E17.40933
G1 X225.416 Y223.162 E17.43458
G1 X225.08 Y223.19 E17.4514
G1 X224.76 Y223.199 E17.46738
G1 X75.666 Y223.2 E24.90571
G1 X74.968 Y223.191 E24.94053
G1 X74.464 Y223.144 E24.96579
G1 X73.974 Y223.019 E24.99101
G1 X73.51 Y222.818 E25.01624
G1 X73.084 Y222.547 E25.04143
G1 X72.705 Y222.212 E25.06667
G1 X72.384 Y221.821 E25.09191
G1 X72.129 Y221.385 E25.11711
G1 X71.945 Y220.914 E25.14233
G1 X71.838 Y220.42 E25.16755
G1 X71.81 Y220.077 E25.18472
G1 X71.801 Y219.744 E25.20134
G1 X71.8 Y184.475 E26.96092
G1 X71.76 Y181.678 E27.10047
G1 X71.645 Y178.961 E27.23615
G1 X71.45 Y176.214 E27.37354
G1 X71.181 Y173.499 E27.50966
G1 X70.836 Y170.787 E27.64605
G1 X70.812 Y170.491 E27.66086
G1 X70.802 Y170.145 E27.67813
G1 X70.8 Y130.27 E29.66751
G1 X70.811 Y129.552 E29.70333
G1 X70.837 Y129.194 E29.72124
G1 X71.047 Y127.553 E29.80378
G1 X71.356 Y124.763 E29.94382
G1 F1500 E23.44382
G0 F7500 X74.547 Y169.453
G0 X84.053 Y169.453
G0 X84.065 Y169
G0 X83.6 Y169
G1 F1500 E29.94382
G1 X75 Y169 E30.37288
G1 X75 Y131 E32.2687
G1 X83.6 Y131 E32.69776
G1 X83.6 Y169 E34.59359
G0 F7500 X84 Y169.4
G1 F1500 X74.6 Y169.4 E35.06256
G1 X74.6 Y130.6 E36.9983
G1 X84 Y130.6 E37.46726
G1 X84 Y169.4 E39.403
G0 F7500 X84.4 Y169.8
G1 F1500 X74.2 Y169.8 E39.91188
G1 X74.2 Y130.2 E41.88753
G1 X84.4 Y130.2 E42.39641
G1 X84.4 Y169.8 E44.37207
G1 F1500 E37.87207
G0 F7500 X74.347 Y170.047
G0 X74.347 Y220.653
G0 X225.653 Y220.653
G0 X225.653 Y170.047
G0 X225 Y169.465
G0 X225 Y169
G1 F1500 E44.37207
G1 X216.4 Y169 E44.80112
G1 X216.4 Y131 E46.69695
G1 X225 Y131 E47.12601
G1 X225 Y169 E49.02183
G0 F7500 X225.4 Y169.4
G1 F1500 X216 Y169.4 E49.4908
G1 X216 Y130.6 E51.42654
G1 X225.4 Y130.6 E51.89551
G1 X225.4 Y169.4 E53.83125
G0 F7500 X225.8 Y169.8
G1 F1500 X215.6 Y169.8 E54.34013
G1 X215.6 Y130.2 E56.31578
G1 X225.8 Y130.2 E56.82466
G1 X225.8 Y169.8 E58.80031
G1 F1500 E52.30031
G0 F7500 X224.6 Y168.6
;TYPE:SUPPORT
G1 F1500 E58.80031
G1 X216.8 Y168.6 E59.18946
G1 X216.8 Y131.4 E61.04537
G1 X224.6 Y131.4 E61.43452
G1 X224.6 Y168.6 E63.29043
G0 F7500 X224.028 Y168.52
G1 F1500 X224.028 Y131.48 E65.13836
G1 F1500 E58.63836
G0 F7500 X224.52 Y133.35
G1 F1500 E65.13836
G1 X216.88 Y133.35 E65.51953
G1 F1500 E59.01953
G0 F7500 X218.694 Y131.48
G1 F1500 E65.51953
G1 X218.694 Y168.52 E67.36746
G1 F1500 E60.86746
G0 F7500 X216.88 Y168.021
G1 F1500 E67.36746
G1 X224.52 Y168.021 E67.74862
G1 F1500 E61.24862
G0 F7500 X224.52 Y165.354
G1 F1500 E67.74862
G1 X216.88 Y165.354 E68.12978
G1 F1500 E61.62978
G0 F7500 X216.88 Y162.687
G1 F1500 E68.12978
G1 X224.52 Y162.687 E68.51094
G1 F1500 E62.01094
G0 F7500 X224.52 Y160.02
G1 F1500 E68.51094
G1 X216.88 Y160.02 E68.8921
G1 F1500 E62.3921
G0 F7500 X216.88 Y157.353
G1 F1500 E68.8921
G1 X224.52 Y157.353 E69.27326
G1 F1500 E62.77326
G0 F7500 X224.52 Y154.686
G1 F1500 E69.27326
G1 X216.88 Y154.686 E69.65443
G1 F1500 E63.15443
G0 F7500 X216.88 Y152.019
G1 F1500 E69.65443
G1 X224.52 Y152.019 E70.03559
G1 F1500 E63.53559
G0 F7500 X224.52 Y149.352
G1 F1500 E70.03559
G1 X216.88 Y149.352 E70.41675
G1 F1500 E63.91675
G0 F7500 X216.88 Y146.685
G1 F1500 E70.41675
G1 X224.52 Y146.685 E70.79791
G1 F1500 E64.29791
G0 F7500 X224.52 Y144.018
G1 F1500 E70.79791
G1 X216.88 Y144.018 E71.17907
G1 F1500 E64.67907
G0 F7500 X216.88 Y141.351
G1 F1500 E71.17907
G1 X224.52 Y141.351 E71.56023
G1 F1500 E65.06023
G0 F7500 X224.52 Y138.684
G1 F1500 E71.56023
G1 X216.88 Y138.684 E71.94139
G1 F1500 E65.44139
G0 F7500 X216.88 Y136.017
G1 F1500 E71.94139
G1 X224.52 Y136.017 E72.32255
G1 F1500 E65.82255
G0 F7500 X225.465 Y136.017
G0 X225.453 Y130.547
G0 X221.361 Y130.535
G0 X221.361 Y131.48
G1 F1500 E72.32255
G1 X221.361 Y168.52 E74.17049
G1 F1500 E67.67049
G0 F7500 X221.361 Y169.465
G0 X225.653 Y170.047
G0 X225.653 Y220.653
G0 X74.347 Y220.653
G0 X74.347 Y170.047
G0 X84.647 Y170.047
G0 X84.065 Y168.52
G0 X83.2 Y168.52
G1 F1500 E74.17049
G1 X83.2 Y168.6 E74.17448
G1 X75.4 Y168.6 E74.56362
G1 X75.4 Y131.4 E76.41954
G1 X83.2 Y131.4 E76.80868
G1 X83.2 Y168.52 E78.66061
G0 F7500 X83.12 Y168.021
G1 F1500 X75.48 Y168.021 E79.04177
G1 F1500 E72.54177
G0 F7500 X77.343 Y168.52
G1 F1500 E79.04177
G1 X77.343 Y131.48 E80.8897
G1 F1500 E74.3897
G0 F7500 X75.48 Y133.35
G1 F1500 E80.8897
G1 X83.12 Y133.35 E81.27086
G1 F1500 E74.77086
G0 F7500 X82.677 Y131.48
G1 F1500 E81.27086
G1 X82.677 Y168.52 E83.11879
G1 F1500 E76.61879
G0 F7500 X80.01 Y168.52
G1 F1500 E83.11879
G1 X80.01 Y131.48 E84.96673
G1 F1500 E78.46673
G0 F7500 X80.01 Y130.535
G0 X84.053 Y130.547
G0 X84.065 Y136.017
G0 X83.12 Y136.017
G1 F1500 E84.96673
G1 X75.48 Y136.017 E85.34789
G1 F1500 E78.84789
G0 F7500 X75.48 Y138.684
G1 F1500 E85.34789
G1 X83.12 Y138.684 E85.72905
G1 F1500 E79.22905
G0 F7500 X83.12 Y141.351
G1 F1500 E85.72905
G1 X75.48 Y141.351 E86.11021
G1 F1500 E79.61021
G0 F7500 X75.48 Y144.018
G1 F1500 E86.11021
G1 X83.12 Y144.018 E86.49137
G1 F1500 E79.99137
G0 F7500 X83.12 Y146.685
G1 F1500 E86.49137
G1 X75.48 Y146.685 E86.87253
G1 F1500 E80.37253
G0 F7500 X75.48 Y149.352
G1 F1500 E86.87253
G1 X83.12 Y149.352 E87.25369
G1 F1500 E80.75369
G0 F7500 X83.12 Y152.019
G1 F1500 E87.25369
G1 X75.48 Y152.019 E87.63486
G1 F1500 E81.13486
G0 F7500 X75.48 Y154.686
G1 F1500 E87.63486
G1 X83.12 Y154.686 E88.01602
G1 F1500 E81.51602
G0 F7500 X83.12 Y157.353
G1 F1500 E88.01602
G1 X75.48 Y157.353 E88.39718
G1 F1500 E81.89718
G0 F7500 X75.48 Y160.02
G1 F1500 E88.39718
G1 X83.12 Y160.02 E88.77834
G1 F1500 E82.27834
G0 F7500 X83.12 Y162.687
G1 F1500 E88.77834
G1 X75.48 Y162.687 E89.1595
G1 F1500 E82.6595
G0 F7500 X75.48 Y165.354
G1 F1500 E89.1595
G1 X83.12 Y165.354 E89.54066
G1 F1500 E83.04066
;MESH:Main PCB Case V2 - Revisi.STL
G0 F7500 X84.065 Y165.354
G0 X84.635 Y165.353
G0 X150 Y219.4
;TYPE:WALL-INNER
G1 F1500 E89.54066
G1 X224.4 Y219.4 E93.25249
G1 X224.4 Y171.3 E95.65221
G1 X214.655 Y171.299 E96.13839
G1 X214.453 Y171.248 E96.14878
G1 X214.211 Y171.049 E96.16442
G1 X214.105 Y170.783 E96.1787
G1 X214.105 Y129.217 E98.25244
G1 X214.186 Y128.989 E98.26451
G1 X214.284 Y128.866 E98.27236
G1 X214.453 Y128.752 E98.28253
G1 X214.654 Y128.701 E98.29287
G1 X224.4 Y128.7 E98.7791
G1 X224.4 Y80.6 E101.17882
G1 X75.6 Y80.6 E108.60248
G1 X75.6 Y128.7 E111.0022
G1 X85.346 Y128.701 E111.48843
G1 X85.547 Y128.752 E111.49878
G1 X85.678 Y128.833 E111.50646
G1 X85.858 Y129.076 E111.52155
G1 X85.9 Y129.27 E111.53145
G1 X85.895 Y170.783 E113.60254
G1 X85.814 Y171.011 E113.61461
G1 X85.716 Y171.134 E113.62246
G1 X85.547 Y171.248 E113.63263
G1 X85.345 Y171.299 E113.64302
G1 X75.6 Y171.3 E114.1292
G1 X75.6 Y219.4 E116.52892
G1 X150 Y219.4 E120.24075
G0 F7500 X150 Y219.8
;TYPE:WALL-OUTER
G1 F1500 X224.8 Y219.8 E123.97254
G1 X224.8 Y170.9 E126.41217
G1 X214.685 Y170.9 E126.91681
G1 X214.578 Y170.86 E126.92251
G1 X214.5 Y170.738 E126.92974
G1 X214.509 Y129.237 E129.00023
G1 X214.644 Y129.1 E129.00982
G1 X224.8 Y129.1 E129.51651
G1 X224.8 Y80.2 E131.95614
G1 X75.2 Y80.2 E139.41971
G1 X75.2 Y129.1 E141.85935
G1 X85.316 Y129.1 E142.36403
G1 X85.422 Y129.14 E142.36969
G1 X85.497 Y129.261 E142.37679
G1 X85.491 Y170.763 E144.44733
G1 X85.356 Y170.9 E144.45693
G1 X75.2 Y170.9 E144.96361
G1 X75.2 Y219.8 E147.40324
G1 X150 Y219.8 E151.13503
G0 F7500 X150.2 Y219.8
G0 X150 Y219.04
;TYPE:SKIN
G1 F1500 X75.96 Y219.04 E154.8289
G1 X75.96 Y171.66 E157.1927
G1 X85.492 Y171.656 E157.66825
G1 X85.863 Y171.476 E157.68883
G1 X86.123 Y171.191 E157.70807
G1 X86.256 Y170.871 E157.72536
G1 X86.252 Y129.207 E159.80399
G1 X86.197 Y128.954 E159.8169
G1 X86.018 Y128.662 E159.83399
G1 X85.66 Y128.406 E159.85595
G1 X85.373 Y128.34 E159.87064
G1 X75.96 Y128.34 E160.34026
G1 X75.96 Y80.96 E162.70405
G1 X224.04 Y80.96 E170.0918
G1 X224.04 Y128.34 E172.45559
G1 X214.499 Y128.34 E172.9316
G1 X214.133 Y128.524 E172.95203
G1 X213.872 Y128.807 E172.97124
G1 X213.74 Y129.127 E172.98851
G1 X213.744 Y170.793 E175.06724
G1 X213.8 Y171.035 E175.07963
G1 X213.971 Y171.334 E175.09681
G1 X214.264 Y171.558 E175.11521
G1 X214.628 Y171.656 E175.13402
G1 X224.04 Y171.66 E175.60359
G1 X224.04 Y219.04 E177.96738
G1 X150 Y219.04 E181.66125
G1 F1500 E175.16125
G0 F7500 X150 Y219.3
G0 X75.772 Y219.228
G0 X75.7 Y218.713
G0 X76.16 Y218.713
G1 F1500 E181.66125
G1 X76.287 Y218.84 E181.67021
G0 F7500 X76.853 Y218.84
G1 F1500 X76.16 Y218.147 E181.71911
G0 F7500 X76.16 Y217.582
G1 F1500 X77.418 Y218.84 E181.80787
G0 F7500 X77.984 Y218.84
G1 F1500 X76.16 Y217.016 E181.93656
G0 F7500 X76.16 Y216.45
G1 F1500 X78.55 Y218.84 E182.10519
G0 F7500 X79.115 Y218.84
G1 F1500 X76.16 Y215.885 E182.31368
G0 F7500 X76.16 Y215.319
G1 F1500 X79.681 Y218.84 E182.56211
G0 F7500 X80.247 Y218.84
G1 F1500 X76.16 Y214.753 E182.85047
G0 F7500 X76.16 Y214.188
G1 F1500 X80.812 Y218.84 E183.17869
G0 F7500 X81.378 Y218.84
G1 F1500 X76.16 Y213.622 E183.54685
G0 F7500 X76.16 Y213.056
G1 F1500 X81.944 Y218.84 E183.95494
G0 F7500 X82.509 Y218.84
G1 F1500 X76.16 Y212.491 E184.4029
G0 F7500 X76.16 Y211.925
G1 F1500 X83.075 Y218.84 E184.89079
G0 F7500 X83.641 Y218.84
G1 F1500 X76.16 Y211.359 E185.41861
G0 F7500 X76.16 Y210.793
G1 F1500 X84.207 Y218.84 E185.98637
G0 F7500 X84.772 Y218.84
G1 F1500 X76.16 Y210.228 E186.59399
G0 F7500 X76.16 Y209.662
G1 F1500 X85.338 Y218.84 E187.24155
G0 F7500 X85.904 Y218.84
G1 F1500 X76.16 Y209.096 E187.92904
G0 F7500 X76.16 Y208.531
G1 F1500 X86.469 Y218.84 E188.6564
G0 F7500 X87.035 Y218.84
G1 F1500 X76.16 Y207.965 E189.42369
G0 F7500 X76.16 Y207.399
G1 F1500 X87.601 Y218.84 E190.23091
G0 F7500 X88.166 Y218.84
G1 F1500 X76.16 Y206.834 E191.078
G0 F7500 X76.16 Y206.268
G1 F1500 X88.732 Y218.84 E191.96502
G0 F7500 X89.298 Y218.84
G1 F1500 X76.16 Y205.702 E192.89198
G0 F7500 X76.16 Y205.137
G1 F1500 X89.863 Y218.84 E193.8588
G0 F7500 X90.429 Y218.84
G1 F1500 X76.16 Y204.571 E194.86556
G0 F7500 X76.16 Y204.005
G1 F1500 X90.995 Y218.84 E195.91225
G0 F7500 X91.56 Y218.84
G1 F1500 X76.16 Y203.44 E196.9988
G0 F7500 X76.16 Y202.874
G1 F1500 X92.126 Y218.84 E198.12529
G0 F7500 X92.692 Y218.84
G1 F1500 X76.16 Y202.308 E199.29171
G0 F7500 X76.16 Y201.743
G1 F1500 X93.257 Y218.84 E200.49799
G0 F7500 X93.823 Y218.84
G1 F1500 X76.16 Y201.177 E201.74421
G0 F7500 X76.16 Y200.611
G1 F1500 X94.389 Y218.84 E203.03037
G0 F7500 X94.955 Y218.84
G1 F1500 X76.16 Y200.045 E204.35646
G0 F7500 X76.16 Y199.48
G1 F1500 X95.52 Y218.84 E205.72241
G0 F7500 X96.086 Y218.84
G1 F1500 X76.16 Y198.914 E207.1283
G0 F7500 X76.16 Y198.348
G1 F1500 X96.652 Y218.84 E208.57412
G0 F7500 X97.217 Y218.84
G1 F1500 X76.16 Y197.783 E210.0598
G0 F7500 X76.16 Y197.217
G1 F1500 X97.783 Y218.84 E211.58542
G0 F7500 X98.349 Y218.84
G1 F1500 X76.16 Y196.651 E213.15098
G0 F7500 X76.16 Y196.086
G1 F1500 X98.914 Y218.84 E214.75639
G0 F7500 X99.48 Y218.84
G1 F1500 X76.16 Y195.52 E216.40175
G0 F7500 X76.16 Y194.954
G1 F1500 X100.046 Y218.84 E218.08703
G0 F7500 X100.611 Y218.84
G1 F1500 X76.16 Y194.389 E219.81218
G0 F7500 X76.16 Y193.823
G1 F1500 X101.177 Y218.84 E221.57727
G0 F7500 X101.743 Y218.84
G1 F1500 X76.16 Y193.257 E223.38229
G0 F7500 X76.16 Y192.692
G1 F1500 X102.308 Y218.84 E225.22717
G0 F7500 X102.874 Y218.84
G1 F1500 X76.16 Y192.126 E227.11199
G0 F7500 X76.16 Y191.56
G1 F1500 X103.44 Y218.84 E229.03674
G0 F7500 X104.006 Y218.84
G1 F1500 X76.16 Y190.994 E231.00142
G0 F7500 X76.16 Y190.429
G1 F1500 X104.571 Y218.84 E233.00597
G0 F7500 X105.137 Y218.84
G1 F1500 X76.16 Y189.863 E235.05046
G0 F7500 X76.16 Y189.297
G1 F1500 X105.703 Y218.84 E237.13487
G0 F7500 X106.268 Y218.84
G1 F1500 X76.16 Y188.732 E239.25916
G0 F7500 X76.16 Y188.166
G1 F1500 X106.834 Y218.84 E241.42337
G0 F7500 X107.4 Y218.84
G1 F1500 X76.16 Y187.6 E243.62752
G0 F7500 X76.16 Y187.035
G1 F1500 X107.965 Y218.84 E245.87154
G0 F7500 X108.531 Y218.84
G1 F1500 X76.16 Y186.469 E248.15549
G0 F7500 X76.16 Y185.903
G1 F1500 X109.097 Y218.84 E250.47937
G0 F7500 X109.662 Y218.84
G1 F1500 X76.16 Y185.338 E252.84312
G0 F7500 X76.16 Y184.772
G1 F1500 X110.228 Y218.84 E255.2468
G0 F7500 X110.794 Y218.84
G1 F1500 X76.16 Y184.206 E257.69041
G0 F7500 X76.16 Y183.641
G1 F1500 X111.359 Y218.84 E260.17389
G0 F7500 X111.925 Y218.84
G1 F1500 X76.16 Y183.075 E262.69731
G0 F7500 X76.16 Y182.509
G1 F1500 X112.491 Y218.84 E265.26066
G0 F7500 X113.056 Y218.84
G1 F1500 X76.16 Y181.944 E267.86387
G0 F7500 X76.16 Y181.378
G1 F1500 X113.622 Y218.84 E270.50701
G0 F7500 X114.188 Y218.84
G1 F1500 X76.16 Y180.812 E273.1901
G0 F7500 X76.16 Y180.246
G1 F1500 X114.754 Y218.84 E275.91311
G0 F7500 X115.319 Y218.84
G1 F1500 X76.16 Y179.681 E278.67599
G0 F7500 X76.16 Y179.115
G1 F1500 X115.885 Y218.84 E281.4788
G0 F7500 X116.451 Y218.84
G1 F1500 X76.16 Y178.549 E284.32155
G0 F7500 X76.16 Y177.984
G1 F1500 X117.016 Y218.84 E287.20416
G0 F7500 X117.582 Y218.84
G1 F1500 X76.16 Y177.418 E290.12671
G0 F7500 X76.16 Y176.852
G1 F1500 X118.148 Y218.84 E293.08919
G0 F7500 X118.713 Y218.84
G1 F1500 X76.16 Y176.287 E296.09153
G0 F7500 X76.16 Y175.721
G1 F1500 X119.279 Y218.84 E299.13381
G0 F7500 X119.845 Y218.84
G1 F1500 X76.16 Y175.155 E302.21602
G0 F7500 X76.16 Y174.59
G1 F1500 X120.41 Y218.84 E305.3381
G0 F7500 X120.976 Y218.84
G1 F1500 X76.16 Y174.024 E308.50011
G0 F7500 X76.16 Y173.458
G1 F1500 X121.542 Y218.84 E311.70206
G0 F7500 X122.107 Y218.84
G1 F1500 X76.16 Y172.893 E314.94386
G0 F7500 X76.16 Y172.327
G1 F1500 X122.673 Y218.84 E318.22561
G0 F7500 X123.239 Y218.84
G1 F1500 X76.259 Y171.86 E321.5403
G0 F7500 X76.825 Y171.86
G1 F1500 X123.804 Y218.84 E324.85496
G0 F7500 X124.37 Y218.84
G1 F1500 X77.391 Y171.86 E328.16962
G0 F7500 X77.956 Y171.859
G1 F1500 X124.936 Y218.84 E331.48434
G0 F7500 X125.502 Y218.84
G1 F1500 X78.521 Y171.859 E334.79911
G0 F7500 X79.086 Y171.859
G1 F1500 X126.067 Y218.84 E338.11387
G0 F7500 X126.633 Y218.84
G1 F1500 X79.652 Y171.859 E341.42863
G0 F7500 X80.217 Y171.858
G1 F1500 X127.199 Y218.84 E344.74347
G0 F7500 X127.764 Y218.84
G1 F1500 X80.783 Y171.858 E348.05827
G0 F7500 X81.348 Y171.858
G1 F1500 X128.33 Y218.84 E351.3731
G0 F7500 X128.896 Y218.84
G1 F1500 X81.913 Y171.857 E354.688
G0 F7500 X82.479 Y171.857
G1 F1500 X129.461 Y218.84 E358.00287
G0 F7500 X130.027 Y218.84
